apps/homepage/src/assets/home/keycap/grap-keycap.svg

<svg width="290" height="290" viewBox="0 0 290 290" fill="none" xmlns="http://www.w3.org/2000/svg">
<rect width="290" height="290" rx="50" fill="url(#paint0_radial_6839_6175)"/>
<mask id="mask0_6839_6175" style="mask-type:alpha" maskUnits="userSpaceOnUse" x="0" y="0" width="290" height="290">
<rect x="290" y="290" width="290" height="290" rx="50" transform="rotate(-180 290 290)" fill="url(#paint1_radial_6839_6175)"/>
</mask>
<g mask="url(#mask0_6839_6175)">
<g filter="url(#filter0_f_6839_6175)">
<path d="M296.25 303.75L296.25 9.44115e-07L-0.625001 303.75L296.25 303.75Z" fill="#757575"/>
</g>
<g opacity="0.5" filter="url(#filter1_f_6839_6175)">
<path d="M219.063 237.187L205.625 237.187C205.625 237.187 243.125 290 244.688 290L249.128 290C252.679 290 255.545 290 260.313 290C262.628 290 263.72 289.73 265.938 289.063C268.715 288.227 269.855 288.066 272.5 286.875C276.15 285.232 278.187 283.534 280.938 280.625C283.404 278.017 284.846 276.59 286.563 273.438C288.08 270.651 288.452 269.051 289.063 265.937C289.649 262.943 289.688 261.176 289.688 258.125L289.688 231.563L246.875 207.499L246.875 211.562L244.688 218.437L240.938 223.749L236.563 228.437L229.688 234.374L219.063 237.187Z" fill="url(#paint2_linear_6839_6175)" fill-opacity="0.3"/>
</g>
<g opacity="0.5" filter="url(#filter2_f_6839_6175)">
<path d="M90.3125 56.5627L103.75 56.5627C103.75 56.5627 46.5625 -5.62501 44.9999 -5.625L40.5594 -5.62495C37.0086 -5.62491 34.1422 -5.62488 29.3749 -5.62496C27.0594 -5.62499 25.9674 -5.35457 23.75 -4.68756C20.9721 -3.85194 19.8325 -3.69102 17.1874 -2.50013C13.5371 -0.856685 11.5005 0.841319 8.7499 3.74986C6.28371 6.35768 4.84169 7.78531 3.125 10.9374C1.6074 13.724 1.23507 15.324 0.625 18.4378C0.0383919 21.4318 -9.19101e-08 23.1989 -1.01639e-07 26.2499L-1.86338e-07 52.8124L62.5 86.2502L62.5 82.1877L64.6875 75.3127L68.4375 70.0002L72.8125 65.3127L79.6875 59.3752L90.3125 56.5627Z" fill="url(#paint3_linear_6839_6175)" fill-opacity="0.2"/>
</g>
</g>
<rect x="41.5" y="41.5" width="207" height="207" rx="49.5" fill="url(#paint4_linear_6839_6175)" stroke="url(#paint5_linear_6839_6175)"/>
<mask id="mask1_6839_6175" style="mask-type:alpha" maskUnits="userSpaceOnUse" x="41" y="41" width="208" height="208">
<rect x="41.5" y="41.5" width="207" height="207" rx="49.5" stroke="url(#paint6_linear_6839_6175)"/>
</mask>
<g mask="url(#mask1_6839_6175)">
<g filter="url(#filter3_f_6839_6175)">
<rect x="43.5" y="43.5" width="203" height="203" rx="47.5" stroke="url(#paint7_linear_6839_6175)" stroke-width="5"/>
</g>
</g>
<defs>
<filter id="filter0_f_6839_6175" x="-18.625" y="-18" width="332.875" height="339.75" filterUnits="userSpaceOnUse" color-interpolation-filters="sRGB">
<feFlood flood-opacity="0" result="BackgroundImageFix"/>
<feBlend mode="normal" in="SourceGraphic" in2="BackgroundImageFix" result="shape"/>
<feGaussianBlur stdDeviation="9" result="effect1_foregroundBlur_6839_6175"/>
</filter>
<filter id="filter1_f_6839_6175" x="195.625" y="197.499" width="104.062" height="102.501" filterUnits="userSpaceOnUse" color-interpolation-filters="sRGB">
<feFlood flood-opacity="0" result="BackgroundImageFix"/>
<feBlend mode="normal" in="SourceGraphic" in2="BackgroundImageFix" result="shape"/>
<feGaussianBlur stdDeviation="5" result="effect1_foregroundBlur_6839_6175"/>
</filter>
<filter id="filter2_f_6839_6175" x="-8" y="-13.625" width="119.75" height="107.875" filterUnits="userSpaceOnUse" color-interpolation-filters="sRGB">
<feFlood flood-opacity="0" result="BackgroundImageFix"/>
<feBlend mode="normal" in="SourceGraphic" in2="BackgroundImageFix" result="shape"/>
<feGaussianBlur stdDeviation="4" result="effect1_foregroundBlur_6839_6175"/>
</filter>
<filter id="filter3_f_6839_6175" x="31" y="31" width="228" height="228" filterUnits="userSpaceOnUse" color-interpolation-filters="sRGB">
<feFlood flood-opacity="0" result="BackgroundImageFix"/>
<feBlend mode="normal" in="SourceGraphic" in2="BackgroundImageFix" result="shape"/>
<feGaussianBlur stdDeviation="5" result="effect1_foregroundBlur_6839_6175"/>
</filter>
<radialGradient id="paint0_radial_6839_6175" cx="0" cy="0" r="1" gradientUnits="userSpaceOnUse" gradientTransform="translate(145 145) rotate(-90) scale(145 145)">
<stop stop-color="#BDBDBD"/>
<stop offset="1" stop-color="#9E9E9E"/>
</radialGradient>
<radialGradient id="paint1_radial_6839_6175" cx="0" cy="0" r="1" gradientUnits="userSpaceOnUse" gradientTransform="translate(435 435) rotate(-90) scale(145 145)">
<stop stop-color="#BDBDBD"/>
<stop offset="1" stop-color="#525252"/>
</radialGradient>
<linearGradient id="paint2_linear_6839_6175" x1="245.625" y1="283.125" x2="283.75" y2="237.5" gradientUnits="userSpaceOnUse">
<stop stop-color="#D4D4D4"/>
<stop offset="0.543269" stop-color="#E5E5E5"/>
<stop offset="1" stop-color="#D4D4D4"/>
</linearGradient>
<linearGradient id="paint3_linear_6839_6175" x1="55.3125" y1="10.6253" x2="10.3125" y2="55.6253" gradientUnits="userSpaceOnUse">
<stop stop-color="#E5E5E5"/>
<stop offset="0.466346" stop-color="white"/>
<stop offset="1" stop-color="#E5E5E5"/>
</linearGradient>
<linearGradient id="paint4_linear_6839_6175" x1="272.908" y1="145" x2="63.7126" y2="130.057" gradientUnits="userSpaceOnUse">
<stop stop-color="#BDBDBD"/>
<stop offset="1" stop-color="#9E9E9E"/>
</linearGradient>
<linearGradient id="paint5_linear_6839_6175" x1="90.8204" y1="78.988" x2="233.431" y2="237.79" gradientUnits="userSpaceOnUse">
<stop stop-color="#9E9E9E"/>
<stop offset="1" stop-color="#BDBDBD"/>
</linearGradient>
<linearGradient id="paint6_linear_6839_6175" x1="90.8204" y1="78.988" x2="233.431" y2="237.79" gradientUnits="userSpaceOnUse">
<stop stop-color="#9E9E9E"/>
<stop offset="1" stop-color="#BDBDBD"/>
</linearGradient>
<linearGradient id="paint7_linear_6839_6175" x1="90.8204" y1="78.988" x2="233.431" y2="237.79" gradientUnits="userSpaceOnUse">
<stop stop-color="#9E9E9E"/>
<stop offset="1" stop-color="#BDBDBD"/>
</linearGradient>
</defs>
</svg>

<svg xmlns="http://www.w3.org/2000/svg" fill="none" viewBox="0 0 290 290"><rect width="290" height="290" fill="url(#a)" rx="50"/><mask id="c" width="290" height="290" x="0" y="0" maskUnits="userSpaceOnUse" style="mask-type:alpha"><rect width="290" height="290" x="290" y="290" fill="url(#b)" rx="50" transform="rotate(-180 290 290)"/></mask><g mask="url(#c)"><g filter="url(#d)"><path fill="#757575" d="M296.25 303.75V0L-.625 303.75z"/></g><g filter="url(#e)" opacity=".5"><path fill="url(#f)" fill-opacity=".3" d="M219.063 237.187h-13.438S243.125 290 244.688 290h15.625c2.315 0 3.407-.27 5.625-.937 2.777-.836 3.917-.997 6.562-2.188 3.65-1.643 5.687-3.341 8.438-6.25 2.466-2.608 3.908-4.035 5.625-7.187 1.517-2.787 1.889-4.387 2.5-7.501.586-2.994.625-4.761.625-7.812v-26.562l-42.813-24.064v4.063l-2.187 6.875-3.75 5.312-4.375 4.688-6.875 5.937z"/></g><g filter="url(#g)" opacity=".5"><path fill="url(#h)" fill-opacity=".2" d="M90.313 56.563h13.437S46.563-5.625 45-5.625H29.375c-2.316 0-3.408.27-5.625.937-2.778.836-3.918.997-6.563 2.188C13.537-.857 11.5.84 8.75 3.75c-2.466 2.608-3.908 4.035-5.625 7.187-1.518 2.787-1.89 4.387-2.5 7.5C.038 21.433 0 23.2 0 26.25v26.562L62.5 86.25v-4.062l2.188-6.875L68.438 70l4.374-4.687 6.876-5.938z"/></g></g><rect width="207" height="207" x="41.5" y="41.5" fill="url(#i)" stroke="url(#j)" rx="49.5"/><mask id="l" width="208" height="208" x="41" y="41" maskUnits="userSpaceOnUse" style="mask-type:alpha"><rect width="207" height="207" x="41.5" y="41.5" stroke="url(#k)" rx="49.5"/></mask><g filter="url(#m)" mask="url(#l)"><rect width="203" height="203" x="43.5" y="43.5" stroke="url(#n)" stroke-width="5" rx="47.5"/></g><defs><linearGradient id="f" x1="245.625" x2="283.75" y1="283.125" y2="237.5" gradientUnits="userSpaceOnUse"><stop stop-color="#d4d4d4"/><stop offset=".543" stop-color="#e5e5e5"/><stop offset="1" stop-color="#d4d4d4"/></linearGradient><linearGradient id="h" x1="55.313" x2="10.313" y1="10.625" y2="55.625" gradientUnits="userSpaceOnUse"><stop stop-color="#e5e5e5"/><stop offset=".466" stop-color="#fff"/><stop offset="1" stop-color="#e5e5e5"/></linearGradient><linearGradient id="i" x1="272.908" x2="63.713" y1="145" y2="130.057" gradientUnits="userSpaceOnUse"><stop stop-color="#bdbdbd"/><stop offset="1" stop-color="#9e9e9e"/></linearGradient><linearGradient id="j" x1="90.82" x2="233.431" y1="78.988" y2="237.79" gradientUnits="userSpaceOnUse"><stop stop-color="#9e9e9e"/><stop offset="1" stop-color="#bdbdbd"/></linearGradient><linearGradient id="k" x1="90.82" x2="233.431" y1="78.988" y2="237.79" gradientUnits="userSpaceOnUse"><stop stop-color="#9e9e9e"/><stop offset="1" stop-color="#bdbdbd"/></linearGradient><linearGradient id="n" x1="90.82" x2="233.431" y1="78.988" y2="237.79" gradientUnits="userSpaceOnUse"><stop stop-color="#9e9e9e"/><stop offset="1" stop-color="#bdbdbd"/></linearGradient><filter id="d" width="332.875" height="339.75" x="-18.625" y="-18" color-interpolation-filters="sRGB" filterUnits="userSpaceOnUse"><feFlood flood-opacity="0" result="BackgroundImageFix"/><feBlend in="SourceGraphic" in2="BackgroundImageFix" result="shape"/><feGaussianBlur result="effect1_foregroundBlur_6839_6175" stdDeviation="9"/></filter><filter id="e" width="104.062" height="102.501" x="195.625" y="197.499" color-interpolation-filters="sRGB" filterUnits="userSpaceOnUse"><feFlood flood-opacity="0" result="BackgroundImageFix"/><feBlend in="SourceGraphic" in2="BackgroundImageFix" result="shape"/><feGaussianBlur result="effect1_foregroundBlur_6839_6175" stdDeviation="5"/></filter><filter id="g" width="119.75" height="107.875" x="-8" y="-13.625" color-interpolation-filters="sRGB" filterUnits="userSpaceOnUse"><feFlood flood-opacity="0" result="BackgroundImageFix"/><feBlend in="SourceGraphic" in2="BackgroundImageFix" result="shape"/><feGaussianBlur result="effect1_foregroundBlur_6839_6175" stdDeviation="4"/></filter><filter id="m" width="228" height="228" x="31" y="31" color-interpolation-filters="sRGB" filterUnits="userSpaceOnUse"><feFlood flood-opacity="0" result="BackgroundImageFix"/><feBlend in="SourceGraphic" in2="BackgroundImageFix" result="shape"/><feGaussianBlur result="effect1_foregroundBlur_6839_6175" stdDeviation="5"/></filter><radialGradient id="a" cx="0" cy="0" r="1" gradientTransform="rotate(-90 145 0)scale(145)" gradientUnits="userSpaceOnUse"><stop stop-color="#bdbdbd"/><stop offset="1" stop-color="#9e9e9e"/></radialGradient><radialGradient id="b" cx="0" cy="0" r="1" gradientTransform="rotate(-90 435 0)scale(145)" gradientUnits="userSpaceOnUse"><stop stop-color="#bdbdbd"/><stop offset="1" stop-color="#525252"/></radialGradient></defs></svg>
